X: 9
T: Byxen Fisen
T: By Väsen
L: 1/8
M: 4/4
K: D
Q: 116
[V:1]|:FG/E/ DE  F2       fe | d2      d>d    d2                d[df] 
| [c3/2e3/2][A/E/] [AE][AE]   .[AE] [Ag][Af][Ae] |1 e3/2       [F/d/] [Fd][FB][F2d2] A/B/A/G/ :|2 e3/2       [F/d/] [Fd][FB][F2d2] A/B/A/G/
[V:2]|:DE/D/ B,C [D2A,2]  BE | [F2A,2] [DA,]>[DA,]  [D2A,2]  [AD][AF] 
| [E3/2A3/2][E/A/] [EA,][EA,] .[EC] [Ag][Af][Ae] |1 [A3/2D3/2] [A/D/] [AD][AD][A2D2] F/G/F/E/ :|2 [A3/2D3/2] [A/D/] [AD][AD][A2D2] F/G/F/E/



%%scale 0.87
